!!!!SEGMENT: pl-cz--ii-36--001-004_zeidler-jozef--missa-e-sanctus.krn
!!!cenid: 18xx:292
!!!COM: Zeidler, Józef
!!!COM-rismID: pe30003401
!!!CDT: ~1744-1806
!!!CNT: Polish
!!!OPR: Missa E
!!!OTL: Sanctus
!!!OMV: 004
!!!PDT: 1820
!!!AGN: Sacred; Mass
!!!SMS-siglum: PL-CZ
!!!SMS-shelfmark: II-36
!!!SMS-shelfwork: 001-004 M
!!!NIFC-rismSourceID: 300001446
!!!NIFC-rismChildID: 300001446
!!!NIFC-islandoraID: pl-cz:33714
!!!URL-pdf-islandora: https://repozytorium.nifc.pl/islandora/object/pl-cz%3A33714/datastream/PDF/view
!!!URL-scan: https://polish.musicsources.pl/pl/lokalizacje/galeria/rekopisy/6805/1 @EN{Scan on Polish Music Sources Website} @PL{Skany w portalu Dziedzictwo Muzyki Polskiej w otwartym dostępie}
!!!IIIF: https://repozytorium.nifc.pl/islandora/object/pl-cz%3A33714/datastream/IIIF/view
!!!ONB-nifc: UWAGA: części Mszy: Kyrie, Gloria, Patrem, Sanctus, Benedictus, Agnus. Dona nobis
!!!AIN: 1 alto 1 bass 1 clars 2 cor 1 organ 1 tenor 2 violn 1 vox
!!!key:
**kern	**fba	**dynam	**kern	**dynam	**kern	**dynam	**kern	**text	**dynam	**kern	**text	**dynam	**kern	**text	**dynam	**kern	**text	**dynam	**kern	**dynam	**kern	**dynam	**kern	**dynam
*part10	*	*part10	*part9	*part9	*part8	*part8	*part7	*part7	*part7	*part6	*part6	*part6	*part5	*part5	*part5	*part4	*part4	*part4	*part3	*part3	*part2	*part2	*part1	*part1
*staff10	*	*	*staff9	*	*staff8	*	*staff7	*staff7	*	*staff6	*staff6	*	*staff5	*staff5	*	*staff4	*staff4	*	*staff3	*	*staff2	*	*staff1	*
*Iorgan	*	*	*Ivioln	*	*Ivioln	*	*Ibass	*	*	*Itenor	*	*	*Ialto	*	*	*Ivox	*	*	*Icor	*	*Icor	*	*Iclars	*
*I"Organo	*	*	*I"Violino Secundo	*	*I"Violino Primo	*	*I"Basso	*	*	*I"Tenore	*	*	*I"Alto	*	*	*I"Canto	*	*	*I"Corno Secundo in Dis	*	*I"Corno Primo in Dis	*	*I"Clarinetto Primo Solo in B	*
*I'Org	*	*	*I'Vn II	*	*I'Vn I	*	*I'B	*	*	*I'T	*	*	*I'A	*	*	*I'C	*	*	*I'Cor II	*	*I'Cor I	*	*I'Cl	*
*clefF4	*	*	*clefG2	*	*clefG2	*	*clefF4	*	*	*clefC4	*	*	*clefC3	*	*	*clefC1	*	*	*clefG2	*	*clefG2	*	*clefG2	*
*	*	*	*	*	*	*	*	*	*	*	*	*	*	*	*	*	*	*	*ITrd5c8	*	*ITrd5c8	*	*ITrd1c1	*
*k[f#c#g#d#]	*	*	*k[f#c#g#d#]	*	*k[f#c#g#d#]	*	*k[f#c#g#d#]	*	*	*k[f#c#g#d#]	*	*	*k[f#c#g#d#]	*	*	*k[f#c#g#d#]	*	*	*k[f#c#g#d#]	*	*k[f#c#g#d#]	*	*k[f#c#g#d#]	*
*E:	*	*	*E:	*	*E:	*	*E:	*	*	*E:	*	*	*E:	*	*	*E:	*	*	*E:	*	*E:	*	*E:	*
*M4/4	*	*	*M4/4	*	*M4/4	*	*M4/4	*	*	*M4/4	*	*	*M4/4	*	*	*M4/4	*	*	*M4/4	*	*M4/4	*	*M4/4	*
*met(c)	*	*	*met(c)	*	*met(c)	*	*met(c)	*	*	*met(c)	*	*	*met(c)	*	*	*met(c)	*	*	*met(c)	*	*met(c)	*	*met(c)	*
=1	=1	=1	=1	=1	=1	=1	=1	=1	=1	=1	=1	=1	=1	=1	=1	=1	=1	=1	=1	=1	=1	=1	=1	=1
*	*	*below	*	*	*	*	*	*	*below	*	*	*	*	*	*below	*	*	*below	*	*	*	*	*	*
*4\right	*	*	*	*	*	*	*4\right	*	*	*4\right	*	*	*4\right	*	*	*4\right	*	*	*4\right	*	*4\right	*	*4\right	*
*xywh-#25:2320,3843,4796,649	*	*	*xywh-#16:2171,415,4914,899	*	*xywh-#13:2267,5329,4767,692	*	*xywh-#10:7781,5543,4005,579	*	*	*xywh-#9:2101,371,4734,996	*	*	*xywh-#7:2078,345,4807,1038	*	*	*xywh-#5:3268,2791,3405,636	*	*	*xywh-#21:2095,1859,4549,679	*	*xywh-#19:6838,2356,3957,816	*	*xywh-#18:2129,358,4836,934	*
!	!	!	!	!	!	!	!	!	!	!LO:SIC:o=:v:oznaczenie tonacji - krzyżyki w kolejności&colon; c# f# g# d#	!	!	!	!	!	!	!	!	!	!	!LO:SIC:o=:v:partia dopisana na innej kartce	!	!LO:SIC:o=:v:kaudy z prawej strony	!
!LO:SIC:o=:v:dynamika"for"	!	!	!	!	!	!	!LO:SIC:o=:v:kaudy z prawej strony	!	!	!LO:SIC:o=:v:kaudy z prawej strony	!	!	!LO:SIC:o=:v:kaudy z prawej strony	!	!	!LO:SIC:o=:v:kaudy z prawej strony	!	!	!LO:SIC:o=:v:kaudy z prawej strony	!	!LO:SIC:o=:v:kaudy z prawej strony	!	!LO:SIC:o=:v:dynamika"fo"	!
!LO:SIC:o=:v:kaudy z prawej strony	!	!	!LO:SIC:o=:v:dynamika"for"	!	!LO:SIC:o=:v:dynamika"for"	!	!LO:SIC:o=:v:dynamika"for"	!	!	!LO:SIC:o=:v:dynamika"fo"	!	!	!LO:SIC:o=:v:dynamika"for"	!	!	!LO:SIC:o=:v:dynamika"fo"	!	!	!LO:SIC:o=:v:dynamika"for"	!	!LO:SIC:o=:v:dynamika"for"	!	!LO:TX:a:i:t=Adagio	!
!LO:TX:a:i:t=Adagio	!	!	!	!	!LO:TX:a:i:t=Adagio	!	!LO:TX:a:i:t=Adagio	!	!	!LO:TX:a:i:t=Adagio	!	!	!LO:TX:a:i:t=Adagio	!	!	!LO:TX:a:i:t=Adagio	!	!LO:DY:t=fo	!LO:TX:a:i:t=Adaggio	!	!	!	!	!LO:DY:t=fo
4E\	.	f	4gg#/ 4b/ 4e/	f	4gg#/ 4b/ 4e/	f	4E\	San-	f	4B\	San-	f	4g#\	San-	f	4ee\	San-	f	4e\	f	4g#\	f	4gg#\	f
4E\	.	.	4gg#/ 4b/ 4e/	.	4gg#/ 4b/ 4e/	.	4E\	-ctus	.	4B\	-ctus	.	4g#\	-ctus	.	4ee\	-ctus	.	4e\	.	4g#\	.	4gg#\	.
!	!	!	!LO:SIC:o=:v:kaudy z prawej strony	!	!LO:SIC:o=:v:triola nieoznaczona łukiem/liczbą	!	!	!	!	!	!	!	!	!	!	!	!	!	!	!	!	!	!	!
!	!	!	!LO:SIC:o=:v:triole oznaczone łukiem i liczbą w tt. 1-2	!	!LO:SIC:o=:v:kaudy z prawej strony	!	!	!	!	!	!	!	!	!	!	!	!	!	!	!	!	!	!	!
*	*	*	*	*	*24\right	*	*	*	*	*	*	*	*	*	*	*	*	*	*	*	*	*	*	*
*	*	*	*24\right	*	*Xtuplet	*	*	*	*	*	*	*	*	*	*	*	*	*	*	*	*	*	*	*
2r	.	.	(24gg#\LL	.	24gg#\LL	.	2r	.	.	2r	.	.	2r	.	.	2r	.	.	2r	.	2r	.	2r	.
.	.	.	24bb\	.	24bb\	.	.	.	.	.	.	.	.	.	.	.	.	.	.	.	.	.	.	.
.	.	.	24aa\JJ)	.	24aa\JJ	.	.	.	.	.	.	.	.	.	.	.	.	.	.	.	.	.	.	.
!	!	!	!	!	!LO:SIC:o=:v:triola oznaczona łukiem i liczbą	!	!	!	!	!	!	!	!	!	!	!	!	!	!	!	!	!	!	!
*	*	*	*	*	*tuplet	*	*	*	*	*	*	*	*	*	*	*	*	*	*	*	*	*	*	*
.	.	.	(24gg#\LL	.	(24gg#\LL	.	.	.	.	.	.	.	.	.	.	.	.	.	.	.	.	.	.	.
.	.	.	24ff#\	.	24ff#\	.	.	.	.	.	.	.	.	.	.	.	.	.	.	.	.	.	.	.
.	.	.	24ee\JJ)	.	24ee\JJ)	.	.	.	.	.	.	.	.	.	.	.	.	.	.	.	.	.	.	.
!	!	!	!	!	!LO:SIC:o=:v:triola oznaczona łukiem i liczbą	!	!	!	!	!	!	!	!	!	!	!	!	!	!	!	!	!	!	!
.	.	.	(24dd#\LL	.	(24dd#\LL	.	.	.	.	.	.	.	.	.	.	.	.	.	.	.	.	.	.	.
.	.	.	24cc#\	.	24cc#\	.	.	.	.	.	.	.	.	.	.	.	.	.	.	.	.	.	.	.
.	.	.	24b\JJ)	.	24b\JJ)	.	.	.	.	.	.	.	.	.	.	.	.	.	.	.	.	.	.	.
!	!	!	!	!	!LO:SIC:o=:v:triola nieoznaczona łukiem/liczbą	!	!	!	!	!	!	!	!	!	!	!	!	!	!	!	!	!	!	!
*	*	*	*	*	*Xtuplet	*	*	*	*	*	*	*	*	*	*	*	*	*	*	*	*	*	*	*
.	.	.	(24a\LL	.	24a\LL	.	.	.	.	.	.	.	.	.	.	.	.	.	.	.	.	.	.	.
.	.	.	24g#\	.	24g#\	.	.	.	.	.	.	.	.	.	.	.	.	.	.	.	.	.	.	.
.	.	.	24f#\JJ)	.	24f#\JJ	.	.	.	.	.	.	.	.	.	.	.	.	.	.	.	.	.	.	.
=2	=2	=2	=2	=2	=2	=2	=2	=2	=2	=2	=2	=2	=2	=2	=2	=2	=2	=2	=2	=2	=2	=2	=2	=2
!	!	!	!LO:SIC:o=:v:dynamika"for"	!	!LO:SIC:o=:v:dynamika"for"	!	!LO:SIC:o=:v:dynamika"for"	!	!	!	!	!LO:DY:t=fo	!	!	!	!LO:SIC:o=:v:dynamika"fo"	!	!	!LO:SIC:o=:v:dynamika"for"	!	!LO:SIC:o=:v:dynamika"fo"	!	!	!
*	*	*	*	*	*	*	*	*ij	*	*	*ij	*	*	*	*	*	*	*	*	*	*	*	*	*
!	!	!	!	!	!	!	!	!	!	!	!	!	!	!	!	!	!	!	!	!	!	!	!	!LO:DY:t=fo
4C#/	5	.	4e/	f	4g#/	f	4C#/	San-	f	4c#\	San-	.	4g#\	san-	.	4ee\	san-	f	4G#/	f	4e\	f	4gg#\	f
4C#/	.	.	4e/	.	4g#/	.	4C#/	-ctus	.	4c#\	-ctus	.	4g#\	-ctus	.	4ee\	-ctus	.	4G#/	.	4e\	.	4gg#\	.
*	*	*	*	*	*tuplet	*	*	*	*	*	*Xij	*	*	*	*	*	*	*	*	*	*	*	*	*
!	!	!	!	!	!LO:SIC:o=:v:triola oznaczona łukiem i liczbą	!	!	!	!	!	!	!	!	!	!	!	!	!	!	!	!	!	!	!
!	!	!	!LO:TUP:a	!	!LO:TUP:a	!	!	!	!	!	!	!	!	!	!	!	!	!	!	!	!	!	!	!
2r	.	.	(24ee\LL	.	(24ee\LL	.	2r	.	.	2r	.	.	2r	.	.	2r	.	.	2r	.	2r	.	2r	.
.	.	.	24gg#\	.	24gg#\	.	.	.	.	.	.	.	.	.	.	.	.	.	.	.	.	.	.	.
.	.	.	24ff#\JJ)	.	24ff#\JJ)	.	.	.	.	.	.	.	.	.	.	.	.	.	.	.	.	.	.	.
!	!	!	!	!	!LO:SIC:o=:v:triola oznaczona liczbą	!	!	!	!	!	!	!	!	!	!	!	!	!	!	!	!	!	!	!
!	!	!	!LO:TUP:a	!	!LO:TUP:a	!	!	!	!	!	!	!	!	!	!	!	!	!	!	!	!	!	!	!
.	.	.	(24ee\LL	.	24ee\LL	.	.	.	.	.	.	.	.	.	.	.	.	.	.	.	.	.	.	.
.	.	.	24ff#\	.	24ff#\	.	.	.	.	.	.	.	.	.	.	.	.	.	.	.	.	.	.	.
.	.	.	24gg#\JJ)	.	24gg#\JJ	.	.	.	.	.	.	.	.	.	.	.	.	.	.	.	.	.	.	.
!	!	!	!	!	!LO:SIC:o=:v:triola oznaczona liczbą	!	!	!	!	!	!	!	!	!	!	!	!	!	!	!	!	!	!	!
!	!	!	!LO:TUP:a	!	!LO:TUP:a	!	!	!	!	!	!	!	!	!	!	!	!	!	!	!	!	!	!	!
.	.	.	24cc#\LL	.	24cc#\LL	.	.	.	.	.	.	.	.	.	.	.	.	.	.	.	.	.	.	.
.	.	.	24ee\	.	24ee\	.	.	.	.	.	.	.	.	.	.	.	.	.	.	.	.	.	.	.
.	.	.	24dd#\JJ	.	24dd#\JJ	.	.	.	.	.	.	.	.	.	.	.	.	.	.	.	.	.	.	.
!	!	!	!LO:TUP:a	!	!LO:SIC:o=:v:triola nieoznaczona łukiem/liczbą	!	!	!	!	!	!	!	!	!	!	!	!	!	!	!	!	!	!	!
*	*	*	*	*	*Xtuplet	*	*	*	*	*	*	*	*	*	*	*	*	*	*	*	*	*	*	*
.	.	.	(24cc#\LL	.	24cc#\LL	.	.	.	.	.	.	.	.	.	.	.	.	.	.	.	.	.	.	.
.	.	.	24dd#\	.	24dd#\	.	.	.	.	.	.	.	.	.	.	.	.	.	.	.	.	.	.	.
.	.	.	24ee\JJ)	.	24ee\JJ	.	.	.	.	.	.	.	.	.	.	.	.	.	.	.	.	.	.	.
=3	=3	=3	=3	=3	=3	=3	=3	=3	=3	=3	=3	=3	=3	=3	=3	=3	=3	=3	=3	=3	=3	=3	=3	=3
!	!	!	!	!	!	!	!LO:SIC:o=:v:dynamika"for"	!	!	!	!	!	!	!	!	!LO:SIC:o=:v:dynamika"for"	!	!	!LO:TX:a:i:t=5	!	!LO:TX:a:i:t=5	!	!	!
*	*	*	*	*	*	*	*	*	*	*	*	*	*	*ij	*	*	*ij	*	*	*	*	*	*	*
4F#X\	.	.	4c#/	.	4a#X/	.	4F#\	San-	f	4c#\	San-	.	4a#X\	san-	.	4ff#\	San-	f	00r	.	00r	.	4aa#\	.
!	!	!	!LO:SIC:o=:v:dynamika"fo"	!	!	!	!	!	!	!	!	!	!	!	!	!	!	!	!	!	!	!	!	!
4F#\	.	.	4c#/	f	4a#/	.	4F#\	-ctus	.	4c#\	-ctus	.	4a#\	-ctus	.	4ff#\	-ctus	.	.	.	.	.	4aa#\	.
*2\right	*	*	*	*	*8\right	*	*	*Xij	*	*8\right	*	*	*	*Xij	*	*8|right	*Xij	*	*	*	*	*	*8\right	*
2D#\	6	.	8f#/L	.	8b\L	.	4D#\	Do-	.	8.d#\	Do-	.	4b\	Do-	.	8.ff#\	Do-	.	.	.	.	.	8bb\L	.
.	.	.	8f#/	.	8b\	.	.	.	.	.	.	.	.	.	.	.	.	.	.	.	.	.	8bb\	.
*	*	*	*	*	*	*	*8\right	*	*	*16\right	*	*	*	*	*	*16\right	*	*	*	*	*	*	*	*
.	.	.	.	.	.	.	.	.	.	16d#\	-mi-	.	.	-mi-	.	16ff#\	-mi-	.	.	.	.	.	.	.
.	.	.	8b/	.	8ff#\	.	8D#\	-mi-	.	4d#\	-nus	.	8b\	-nus	.	4ff#\	-nus	.	.	.	.	.	8ff#\	.
.	.	.	8b/J	.	8ff#\J	.	8D#\	-nus	.	.	.	.	8b\	.	.	.	.	.	.	.	.	.	8ff#\J	.
=4	=4	=4	=4	=4	=4	=4	=4	=4	=4	=4	=4	=4	=4	=4	=4	=4	=4	=4	=4	=4	=4	=4	=4	=4
*	*	*	*	*	*tremolo	*	*	*	*	*	*	*	*	*	*	*	*	*	*	*	*	*	*	*
2C#/	7	.	8b/L	p	8ee\L	p	8C#/	De-	.	8e\	De-	.	8b\	De-	.	8ee\	De-	.	.	.	.	.	8ee\L	.
.	6\	.	8b/	.	8ee\	.	8C#/	-us	.	8e\	-us	.	8b\	-us	.	8ee\	-us	.	.	.	.	.	8bb\	.
!	!	!	!	!	!	!	!	!	!	!	!	!	!	!	!	!	!	!	!	!	!	!	!LO:SIC:s=:v:8bb	!
.	.	.	8a#X/	.	8ee\	.	8C#/	Sa-	.	8f#\	Sab-	.	8a#X\	Sa-	.	8ee\	Sab-	.	.	.	.	.	8aa\	.
!	!	!	!	!	!	!	!	!	!	!	!	!	!	!	!	!	!	!	!	!	!	!	!LO:SIC:s=:v:8bb	!
.	.	.	8a#/J	.	8ee\J	.	8C#/	-ba-	.	8f#\	-ba-	.	8a#\	-ba-	.	8ee\	-ba-	.	.	.	.	.	8aa\J	.
*	*	*	*	*	*Xtremolo	*	*	*	*	*	*	*	*	*	*	*	*	*	*	*	*	*	*	*
*	*	*	*	*	*4\right	*	*	*	*	*	*	*	*	*	*	*	*	*	*	*	*	*	*	*
4BB/	.	.	4b/	.	4dd#\	.	4BB/	-oth	.	4f#\	-oth	.	4b\	-oth	.	4dd#\	-oth	.	.	.	.	.	4bb\	.
*clefC1	*	*	*	*	*	*	*	*	*	*	*	*	*	*	*	*	*	*	*	*	*	*	*	*
*k[f#c#g#d#]	*	*	*	*	*	*	*	*	*	*	*	*	*	*	*	*	*	*	*	*	*	*	*	*
*8\right	*	*	*	*	*	*	*	*	*	*	*	*	*	*	*	*	*	*	*	*	*	*	*	*
!LO:SIC:o=:v:znaki przykluczowe	!	!	!	!	!LO:SIC:o=:v:dynamika"for"	!	!	!	!	!	!	!	!	!	!	!	!	!	!	!	!	!	!	!
8ff#\L	.	.	4r	.	8ff#\L	f	4r	.	.	4r	.	.	4r	.	.	8ff#\	Do-	.	.	.	.	.	4r	.
8ff#\J	.	.	.	.	8ff#\J	.	.	.	.	.	.	.	.	.	.	16ff#\	-mi-	.	.	.	.	.	.	.
.	.	.	.	.	.	.	.	.	.	.	.	.	.	.	.	16ff#\	-nus	.	.	.	.	.	.	.
=5	=5	=5	=5	=5	=5	=5	=5	=5	=5	=5	=5	=5	=5	=5	=5	=5	=5	=5	=5	=5	=5	=5	=5	=5
!	!	!	!	!	!	!	!	!	!	!	!	!	!	!	!	!	!LO:PB:g=original	!	!	!	!	!	!	!
*^	*	*	*	*	*	*	*	*	*	*	*	*	*	*	*	*	*	*	*	*	*	*	*	*
*	*	*	*	*	*	*	*	*	*	*	*	*	*	*	*	*	*xywh-#5:2038,3282,4833,636	*	*	*	*	*	*	*	*
16dd#/LL	8b\L	.	.	8b/L	.	16dd#\LL	.	2r	.	.	4r	.	.	8b\	Do-	.	16dd#\LL	De-	.	.	.	.	.	4dd#\	.
16cc#/	.	.	.	.	.	16cc#\	.	.	.	.	.	.	.	.	.	.	16cc#\JJ	.	.	.	.	.	.	.	.
16dd#/	8b\J	.	.	8b/J	.	16dd#\	.	.	.	.	.	.	.	16b\	-mi-	.	16dd#\LL	-us	.	.	.	.	.	.	.
!	!	!	!	!	!	!	!	!	!	!	!	!	!	!	!	!	!LO:SIC:s=:v:16b	!	!	!	!	!	!	!	!
16b/JJ	.	.	.	.	.	16b\JJ	.	.	.	.	.	.	.	16b\	-nus	.	16cc#\JJ	.	.	.	.	.	.	.	.
*clefC4	*	*	*	*	*	*	*	*	*	*	*	*	*	*	*	*	*	*	*	*	*	*	*	*	*
8e\L	2.ryy	.	.	16g#/LL	.	8ee\L	.	.	.	.	8e\	Do-	.	16g#\LL	De-	.	8b\	Do-	.	.	.	.	.	4ee\	.
.	.	.	.	16f#/	.	.	.	.	.	.	.	.	.	16f#\JJ	.	.	.	.	.	.	.	.	.	.	.
8e\J	.	.	.	16g#/	.	8gg#\J	.	.	.	.	16e\	-mi-	.	16g#\LL	-us	.	16b\	-mi-	.	.	.	.	.	.	.
.	.	.	.	16e/JJ	.	.	.	.	.	.	16e\	-nus	.	16e\JJ	.	.	16b\	-nus	.	.	.	.	.	.	.
*clefF4	*	*	*	*	*	*	*	*	*	*	*	*	*	*	*	*	*	*	*	*	*	*	*	*	*
*	*	*	*	*	*	*	*	*	*	*	*	*	*	*custos:f#	*	*	*	*	*	*	*	*	*	*	*
*	*	*	*	*	*	*	*	*	*	*	*	*	*	*xywh-#7:2047,1269,4620,633	*	*	*	*	*	*	*	*	*	*	*
!	!	!	!	!	!	!	!	!	!	!	!	!	!	!LO:PB:g=original	!	!	!	!	!	!	!	!	!	!	!
8B\L	.	.	.	4b\	.	8ff#\L	.	8B\	Do-	.	16d#\LL	De-	.	8f#\	Do-	.	4b\	De-	.	.	.	.	.	4ff#\	.
.	.	.	.	.	.	.	.	.	.	.	16c#\JJ	.	.	.	.	.	.	.	.	.	.	.	.	.	.
!	!	!	!	!	!	!	!	!	!	!	!LO:PB:g=original	!	!	!	!	!	!	!	!	!	!	!	!	!	!
*	*	*	*	*	*	*	*	*16\right	*	*	*	*	*	*	*	*	*	*	*	*	*	*	*	*	*
*	*	*	*	*	*	*	*	*	*	*	*xywh-#9:2091,1243,4381,664	*	*	*	*	*	*	*	*	*	*	*	*	*	*
8B\J	.	.	.	.	.	8ff#\	.	16B\	-mi-	.	16d#\LL	-us	.	16f#\	-mi-	.	.	.	.	.	.	.	.	.	.
.	.	.	.	.	.	.	.	16B\	-nus	.	16B\JJ	.	.	16f#\	-nus	.	.	.	.	.	.	.	.	.	.
*16\right	*	*	*	*	*	*	*	*	*	*	*	*	*	*	*	*	*	*	*	*	*	*	*	*	*
16G#\LL	.	6	.	4b\	.	8ee\	.	16G#\LL	Do-	.	8e\	De-	.	8e\	De-	.	4b\	-us	.	.	.	.	.	4ee\	.
16F#\	.	.	.	.	.	.	.	16F#\	.	.	.	.	.	.	.	.	.	.	.	.	.	.	.	.	.
16G#\	.	.	.	.	.	8ee\J	.	16G#\	.	.	8e\	-us	.	8e\	-us	.	.	.	.	.	.	.	.	.	.
16E\JJ	.	.	.	.	.	.	.	16E\JJ	.	.	.	.	.	.	.	.	.	.	.	.	.	.	.	.	.
*v	*v	*	*	*	*	*	*	*	*	*	*	*	*	*	*	*	*	*	*	*	*	*	*	*	*
=6	=6	=6	=6	=6	=6	=6	=6	=6	=6	=6	=6	=6	=6	=6	=6	=6	=6	=6	=6	=6	=6	=6	=6	=6
*	*	*	*	*	*	*	*xywh-#10:6924,5984,4897,735	*	*	*	*	*	*	*	*	*	*	*	*	*	*	*	*	*
!	!	!	!	!	!	!	!LO:PB:g=original	!	!	!	!	!	!	!	!	!	!	!	!	!	!	!	!	!
4A\	5	.	4cc#\	.	16ee\LL	.	4A\	.	.	16c#\LL	Do-	.	16e\LL	Do-	.	4r	.	.	.	.	.	.	4r	.
.	.	.	.	.	16dd#\	.	.	.	.	16B\	.	.	16d#\	.	.	.	.	.	.	.	.	.	.	.
.	.	.	.	.	16ee\	.	.	.	.	16c#\	.	.	16e\	.	.	.	.	.	.	.	.	.	.	.
.	.	.	.	.	16cc#\JJ	.	.	.	.	16A\JJ	.	.	16c#\JJ	.	.	.	.	.	.	.	.	.	.	.
*	*	*	*16\right	*	*	*	*	*	*	*	*	*	*	*	*	*	*	*	*	*	*	*	*	*
16A\LL	.	.	16cc#\LL	.	4ff#\	.	16A\LL	.	.	4c#\	.	.	4f#\	.	.	16cc#\LL	Do-	.	.	.	.	.	4ff#\	.
16G#\	.	.	16b\	.	.	.	16G#\	.	.	.	.	.	.	.	.	16b\	.	.	.	.	.	.	.	.
16A\	.	.	16cc#\	.	.	.	16A\	.	.	.	.	.	.	.	.	16cc#\	.	.	.	.	.	.	.	.
16F#\JJ	.	.	16a\JJ	.	.	.	16F#\JJ	.	.	.	.	.	.	.	.	16a\JJ	.	.	.	.	.	.	.	.
4B\	5	.	4dd#\	.	16ff#\LL	.	4B\	.	.	16d#\LL	.	.	16f#\LL	.	.	4dd#\	.	.	.	.	.	.	4r	.
.	.	.	.	.	16ee\	.	.	.	.	16c#\	.	.	16e\	.	.	.	.	.	.	.	.	.	.	.
.	.	.	.	.	16ff#\	.	.	.	.	16d#\	.	.	16f#\	.	.	.	.	.	.	.	.	.	.	.
.	.	.	.	.	16dd#\JJ	.	.	.	.	16B\JJ	.	.	16d#\JJ	.	.	.	.	.	.	.	.	.	.	.
16B\LL	6_	.	16dd#\LL	.	4gg#\	.	16B\LL	.	.	4d#\	.	.	4g#\	.	.	16dd#\LL	.	.	.	.	.	.	4gg#\	.
16A\	_	.	16cc#\	.	.	.	16A\	.	.	.	.	.	.	.	.	16cc#\	.	.	.	.	.	.	.	.
16B\	_	.	16dd#\	.	.	.	16B\	.	.	.	.	.	.	.	.	16dd#\	.	.	.	.	.	.	.	.
16G#\JJ	x	.	16b\JJ	.	.	.	16G#\JJ	.	.	.	.	.	.	.	.	16b\JJ	.	.	.	.	.	.	.	.
=7	=7	=7	=7	=7	=7	=7	=7	=7	=7	=7	=7	=7	=7	=7	=7	=7	=7	=7	=7	=7	=7	=7	=7	=7
*xywh-#25:2335,4348,3808,540	*	*	*xywh-#16:2154,1185,2933,571	*	*xywh-#13:2250,5744,4853,778	*	*	*	*	*	*	*	*	*	*	*	*	*	*	*	*	*	*	*
!LO:LB:g=original	!	!	!LO:PB:g=original	!	!LO:PB:g=original	!	!	!	!	!	!	!	!	!	!	!	!	!	!	!	!	!	!	!
4c#\	.	.	4ee\	.	16gg#\LL	.	4c#\	.	.	16e\LL	.	.	16g#\LL	.	.	4ee\	.	.	1r	.	1r	.	4r	.
.	.	.	.	.	16ff#\	.	.	.	.	16d#\	.	.	16f#\	.	.	.	.	.	.	.	.	.	.	.
.	.	.	.	.	16gg#\	.	.	.	.	16e\	.	.	16g#\	.	.	.	.	.	.	.	.	.	.	.
.	.	.	.	.	16ee\JJ	.	.	.	.	16c#\JJ	.	.	16e\JJ	.	.	.	.	.	.	.	.	.	.	.
16c#\LL	.	.	16ee\LL	.	4aa\	.	16c#\LL	.	.	4e\	.	.	4a\	.	.	16ee\LL	.	.	.	.	.	.	4aa\	.
16B\	.	.	16dd#\	.	.	.	16B\	.	.	.	.	.	.	.	.	16dd#\	.	.	.	.	.	.	.	.
16c#\	.	.	16ee\	.	.	.	16c#\	.	.	.	.	.	.	.	.	16ee\	.	.	.	.	.	.	.	.
16A\JJ	.	.	16cc#\JJ	.	.	.	16A\JJ	.	.	.	.	.	.	.	.	16b\JJ	.	.	.	.	.	.	.	.
2B\	7 5	.	8dd#\L	.	8aa\L	.	4B\	.	.	8.f#\	.	.	4a\	.	.	8.ee\	.	.	.	.	.	.	4aa\	.
.	.	.	8dd#\	.	8aa\	.	.	.	.	.	.	.	.	.	.	.	.	.	.	.	.	.	.	.
.	6 4	.	.	.	.	.	.	.	.	16f#\	-mi-	.	.	.	.	16ee\	-mi-	.	.	.	.	.	.	.
.	.	.	8ee\	.	8gg#\	.	8B\	-mi-	.	4e\	-nus	.	8g#\	-mi-	.	4ee\	-nus	.	.	.	.	.	4gg#\	.
.	.	.	8ee\J	.	8gg#\J	.	8B\	-nus	.	.	.	.	8g#\	-nus	.	.	.	.	.	.	.	.	.	.
=8	=8	=8	=8	=8	=8	=8	=8	=8	=8	=8	=8	=8	=8	=8	=8	=8	=8	=8	=8	=8	=8	=8	=8	=8
!	!	!	!	!	!	!	!LO:SIC:o=:v:dynamika"for"	!	!	!	!	!	!LO:SIC:o=:v:dynamika"for"	!	!	!LO:SIC:o=:v:dynamika"for"	!	!	!LO:SIC:o=:v:dynamika"for"	!	!LO:SIC:o=:v:dynamika"fo"	!	!	!
*	*	*	*	*	*tremolo	*	*	*	*	*	*	*	*	*	*	*	*	*	*	*	*2\right	*	*2\right	*
!	!	!	!	!	!	!	!	!	!	!	!	!	!	!	!	!	!	!	!	!	!	!LO:DY:t=fo	!	!
2A#X\	7	.	8ee\L	.	8gg#\L	.	8A#X\	De-	f	8c#\	De-	.	8g#\	De-	f	8ee\	De-	f	2e\	f	2g#\	f	2gg#\	.
.	.	.	8ee\	.	8gg#\	.	8A#\	-us	.	8c#\	-us	.	8g#\	-us	.	8ee\	-us	.	.	.	.	.	.	.
.	.	.	8ee\	.	8gg#\	.	8A#\	Sa-	.	8.c#\	Sab-	.	8.g#\	Sa-	.	8.ee\	Sa-	.	.	.	.	.	.	.
.	.	.	8ee\J	.	8gg#\J	.	8A#\	-ba-	.	.	.	.	.	.	.	.	.	.	.	.	.	.	.	.
.	.	.	.	.	.	.	.	.	.	16c#\	-ba-	.	16g#\	-ba-	.	16ee\	-ba-	.	.	.	.	.	.	.
*	*	*	*	*	*Xtremolo	*	*	*	*	*	*	*	*	*	*	*	*	*	*	*	*	*	*	*
4B\	.	.	8dd#\L	.	8ff#\L	.	4B\	-oth	.	4B\	-oth	.	4f#\	-oth	.	4dd#\	-oth	.	4B/	.	4e\	.	4ff#\	.
.	.	.	16r	.	16r	.	.	.	.	.	.	.	.	.	.	.	.	.	.	.	.	.	.	.
!	!	!	!LO:SIC:o=:v:dynamika"for"	!	!	!	!	!	!	!	!	!	!	!	!	!	!	!	!	!	!	!	!	!
.	.	.	16gg#\Jk	f	16bb\Jk	.	.	.	.	.	.	.	.	.	.	.	.	.	.	.	.	.	.	.
4r	.	.	16ff#\LL	.	16aa\LL	.	4r	.	.	4r	.	.	4r	.	.	4r	.	.	4r	.	4r	.	4r	.
.	.	.	16ee\	.	16gg#\	.	.	.	.	.	.	.	.	.	.	.	.	.	.	.	.	.	.	.
.	.	.	16dd#\	.	16ff#\	.	.	.	.	.	.	.	.	.	.	.	.	.	.	.	.	.	.	.
.	.	.	16cc#\JJ	.	16ee\JJ	.	.	.	.	.	.	.	.	.	.	.	.	.	.	.	.	.	.	.
=9	=9	=9	=9	=9	=9	=9	=9	=9	=9	=9	=9	=9	=9	=9	=9	=9	=9	=9	=9	=9	=9	=9	=9	=9
!	!	!	!LO:SIC:o=:v:dynamika"fo"	!LO:DY:t=fo	!LO:SIC:o=:v:dynamika"for"	!	!LO:SIC:o=:v:brak pauz w tt. 9-10	!	!	!LO:TX:a:i:t=2	!	!	!LO:TX:a:i:t=2	!	!	!	!	!	!	!	!	!	!	!
4BB/	.	.	8.dd#\L	f	8ff#\L	f	1ryy	.	.	0r	.	.	0r	.	.	0r	.	.	2r	.	2r	.	8ff#\L	.
.	.	.	.	.	16r	.	.	.	.	.	.	.	.	.	.	.	.	.	.	.	.	.	16r	.
*	*	*	*	*	*	*	*	*	*	*	*	*	*	*	*	*	*	*	*	*	*	*	*16\right	*
.	.	.	16g#\Jk	.	16b\Jk	.	.	.	.	.	.	.	.	.	.	.	.	.	.	.	.	.	16bb\Jk	.
4r	.	.	16f#/LL	.	16a/LL	.	.	.	.	.	.	.	.	.	.	.	.	.	.	.	.	.	16aa\LL	.
.	.	.	16e/	.	16g#/	.	.	.	.	.	.	.	.	.	.	.	.	.	.	.	.	.	16gg#\	.
.	.	.	16d#/	.	16f#/	.	.	.	.	.	.	.	.	.	.	.	.	.	.	.	.	.	16ff#\	.
.	.	.	16c#/JJ	.	16e/JJ	.	.	.	.	.	.	.	.	.	.	.	.	.	.	.	.	.	16ee\JJ	.
!	!	!	!	!	!	!	!	!	!	!	!	!	!	!	!	!	!	!	!LO:SIC:o=:v:dynamika"for"	!	!LO:SIC:o=:v:dynamika"for"	!	!	!
*	*	*	*	*	*	*	*	*	*	*	*	*	*	*	*	*	*	*	*	*	*8\right	*	*	*
4BB/	.	.	8.d#/L	.	8.f#/L	.	.	.	.	.	.	.	.	.	.	.	.	.	8.B/L	f	8.f#\L	f	8ff#\L	.
.	.	.	.	.	.	.	.	.	.	.	.	.	.	.	.	.	.	.	.	.	.	.	8gg#\J	.
*	*	*	*	*	*	*	*	*	*	*	*	*	*	*	*	*	*	*	*	*	*16\right	*	*	*
.	.	.	16e/Jk	.	16g#/Jk	.	.	.	.	.	.	.	.	.	.	.	.	.	16e/Jk	.	16g#\Jk	.	.	.
!	!	!	!	!	!	!	!	!	!	!	!	!	!	!	!	!	!	!	!	!	!	!	!LO:PB:g=original	!
*	*	*	*	*	*	*	*	*	*	*	*	*	*	*	*	*	*	*	*16\right	*	*	*	*xywh-#18:2086,1258,4836,614	*
4BB/	.	.	16d#/LL	.	16f#/LL	.	.	.	.	.	.	.	.	.	.	.	.	.	16B\LL	.	16f#\LL	.	16ff#\LL	.
.	.	.	16e/	.	16g#/	.	.	.	.	.	.	.	.	.	.	.	.	.	16e\	.	16g#\	.	16gg#\	.
.	.	.	16d#/	.	16f#/	.	.	.	.	.	.	.	.	.	.	.	.	.	16B\	.	16f#\	.	16ff#\	.
.	.	.	16e/JJ	.	16g#/JJ	.	.	.	.	.	.	.	.	.	.	.	.	.	16e\JJ	.	16g#\JJ	.	16gg#\JJ	.
=10	=10	=10	=10	=10	=10	=10	=10	=10	=10	=10	=10	=10	=10	=10	=10	=10	=10	=10	=10	=10	=10	=10	=10	=10
2BB/	.	.	2d#/	.	2f#/	.	1ryy	.	.	.	.	.	.	.	.	.	.	.	1B/	.	1d#/	.	2ff#\	.
2r	.	.	2r	.	2r	.	.	.	.	.	.	.	.	.	.	.	.	.	.	.	.	.	2r	.
!LO:TX:a:i:t=Pleni et Ozanna	!	!	!LO:TX:a:i:t=Pleni	!	!	!	!	!	!	!	!	!	!	!	!	!LO:SIC:o=:v:zapisany i wymazany takt	!	!	!	!	!	!	!	!
=11||	=11||	=11||	=11||	=11||	=11||	=11||	=11||	=11||	=11||	=11||	=11||	=11||	=11||	=11||	=11||	=11||	=11||	=11||	=11||	=11||	=11||	=11||	=11||	=11||
!	!	!	!LO:PB:g=original	!	!LO:PB:g=original	!	!	!	!	!	!	!	!LO:PB:g=original	!	!	!LO:PB:g=original	!	!	!	!	!	!	!	!
*k[f#c#g#d#]	*	*	*k[f#c#g#d#]	*	*k[f#c#g#d#]	*	*k[f#c#g#d#]	*	*	*k[f#c#g#d#]	*	*	*k[f#c#g#d#]	*	*	*k[f#c#g#d#]	*	*	*k[f#c#g#d#]	*	*k[f#c#g#d#]	*	*k[f#c#g#d#]	*
*M4/4	*	*	*M4/4	*	*M4/4	*	*M4/4	*	*	*M4/4	*	*	*M4/4	*	*	*M4/4	*	*	*M4/4	*	*M4/4	*	*M4/4	*
*met(c)	*	*	*met(c)	*	*met(c)	*	*met(c)	*	*	*met(c)	*	*	*met(c)	*	*	*met(c)	*	*	*met(c)	*	*met(c)	*	*met(c)	*
*xywh-#25:2321,4853,4796,735	*	*	*xywh-#16:2154,1644,4879,700	*	*xywh-#13:2241,6350,4853,683	*	*	*	*	*xywh-#9:2091,1741,4858,706	*	*	*xywh-#7:2047,1768,4775,654	*	*	*	*	*	*xywh-#21:2084,2382,4528,658	*	*xywh-#19:6847,2883,4581,824	*	*	*
!	!	!	!	!	!LO:SIC:o=:v:niejednoznaczny zapis - piano/poco?	!	!	!	!	!	!	!	!	!	!	!	!	!	!LO:TX:a:i:t=Pleni	!	!LO:TX:a:i:t=Pleni	!	!	!
!LO:TX:b:i:t=Pleni	!	!	!LO:TX:b:i:t=Dolc	!	!LO:TX:b:t=Pleni & Osanna	!	!	!	!	!LO:TX:a:i:t=3	!	!	!	!	!	!	!	!	!LO:SIC:o=:v:oznaczenie metryczne alla breve	!	!LO:SIC:o=:v:oznaczenie metryczne alla breve	!	!LO:TX:a:i:t=Pleni	!
!	!	!LO:DY:rj	!LO:SIC:o=:v:niejednoznaczny zapis pod pięciolinią	!	!LO:SIC:o=:v:trzy skreślone takty wcześniej	!	!LO:TX:a:i:t=3	!	!	!LO:SIC:o=:v:oznaczenie tonacji - krzyżyki w kolejności&colon; c# f# g# d#	!	!	!LO:TX:a:i:t=3	!	!	!LO:TX:a:i:t=3	!	!	!LO:TX:a:i:t=3	!	!LO:TX:a:i:t=3	!	!LO:TX:a:i:t=Allegro	!
!LO:TX:a:i:t=Allo	!	!	!LO:TX:a:i:t=Allo	!	!LO:TX:a:i:t=Allo	!	!	!	!	!	!	!LO:TX:a:i:t=Allo	!	!	!	!LO:TX:a:i:t=Allo	!	!	!	!	!	!	!	!
8E\L	.	p:	4.e/	.	4.ee\	p	0r	.	.	0r	.	.	0r	.	.	0r	.	.	0r	.	0r	.	2gg#\	p
!	!	!	!	!	!LO:TX:b:i:t=poco	!	!	!	!	!	!	!	!	!	!	!	!	!	!	!	!	!	!	!
8E\	.	.	.	.	.	.	.	.	.	.	.	.	.	.	.	.	.	.	.	.	.	.	.	.
8E\	.	.	.	.	.	.	.	.	.	.	.	.	.	.	.	.	.	.	.	.	.	.	.	.
8E\J	.	.	16g#/LL	.	16gg#\LL	.	.	.	.	.	.	.	.	.	.	.	.	.	.	.	.	.	.	.
.	.	.	16f#/JJ	.	16ff#\JJ	.	.	.	.	.	.	.	.	.	.	.	.	.	.	.	.	.	.	.
*tremolo	*	*	*	*	*	*	*	*	*	*	*	*	*	*	*	*	*	*	*	*	*	*	*	*
8E\L	.	.	8e/L	.	8ee\L	.	.	.	.	.	.	.	.	.	.	.	.	.	.	.	.	.	4gg#\	.
8E\	.	.	8f#/	.	8ff#\	.	.	.	.	.	.	.	.	.	.	.	.	.	.	.	.	.	.	.
8E\	.	.	8g#/	.	8gg#\	.	.	.	.	.	.	.	.	.	.	.	.	.	.	.	.	.	4r	.
8E\J	.	.	8a/J	.	8aa\J	.	.	.	.	.	.	.	.	.	.	.	.	.	.	.	.	.	.	.
=12	=12	=12	=12	=12	=12	=12	=12	=12	=12	=12	=12	=12	=12	=12	=12	=12	=12	=12	=12	=12	=12	=12	=12	=12
8E\L	.	.	4.b/	.	4.bb\	.	.	.	.	.	.	.	.	.	.	.	.	.	.	.	.	.	2gg#\	.
8E\	.	.	.	.	.	.	.	.	.	.	.	.	.	.	.	.	.	.	.	.	.	.	.	.
8E\	.	.	.	.	.	.	.	.	.	.	.	.	.	.	.	.	.	.	.	.	.	.	.	.
8E\J	.	.	16g#/LL	.	16gg#\LL	.	.	.	.	.	.	.	.	.	.	.	.	.	.	.	.	.	.	.
.	.	.	16a/JJ	.	16aa\JJ	.	.	.	.	.	.	.	.	.	.	.	.	.	.	.	.	.	.	.
*Xtremolo	*	*	*	*	*	*	*	*	*	*	*	*	*	*	*	*	*	*	*	*	*	*	*	*
8E\L	.	.	8b/L	.	8bb\L	.	.	.	.	.	.	.	.	.	.	.	.	.	.	.	.	.	4gg#\	.
8E\	.	.	8e/J	.	8ee\J	.	.	.	.	.	.	.	.	.	.	.	.	.	.	.	.	.	.	.
.	.	.	8qqg#/	.	4qqgg#/	.	.	.	.	.	.	.	.	.	.	.	.	.	.	.	.	.	.	.
8BB\	.	.	8f#/L	.	8ff#\L	.	.	.	.	.	.	.	.	.	.	.	.	.	.	.	.	.	4ff#\	.
8BB\J	.	.	16e/L	.	16ee\L	.	.	.	.	.	.	.	.	.	.	.	.	.	.	.	.	.	.	.
.	.	.	16d#/JJ	.	16dd#\JJ	.	.	.	.	.	.	.	.	.	.	.	.	.	.	.	.	.	.	.
=13	=13	=13	=13	=13	=13	=13	=13	=13	=13	=13	=13	=13	=13	=13	=13	=13	=13	=13	=13	=13	=13	=13	=13	=13
*tremolo	*	*	*	*	*	*	*	*	*	*	*	*	*	*	*	*	*	*	*	*	*	*	*	*
!	!	!	!	!	!LO:TX:t=P:|:problem	!	!	!	!	!	!	!	!	!	!	!	!	!	!	!	!	!	!	!
8E\L	.	.	8e/L	.	8ee`\L	.	1r	.	.	1r	.	.	1r	.	.	1r	.	.	1r	.	1r	.	4gg#\	.
8E\	.	.	16g#/L	.	(16gg#\L	.	.	.	.	.	.	.	.	.	.	.	.	.	.	.	.	.	.	.
.	.	.	16f#/JJ	.	16ff#\JJ)	.	.	.	.	.	.	.	.	.	.	.	.	.	.	.	.	.	.	.
8E\	.	.	8e/L	.	8ee\L	.	.	.	.	.	.	.	.	.	.	.	.	.	.	.	.	.	4r	.
8E\J	.	.	8B/J	.	8b\J	.	.	.	.	.	.	.	.	.	.	.	.	.	.	.	.	.	.	.
!	!	!	!	!	!LO:TX:t=P:|:problem	!	!	!	!	!	!	!	!	!	!	!	!	!	!	!	!	!	!	!
8E\L	.	.	8e/L	.	8ee`\L	.	.	.	.	.	.	.	.	.	.	.	.	.	.	.	.	.	2r	.
8E\	.	.	16g#/L	.	(16gg#\L	.	.	.	.	.	.	.	.	.	.	.	.	.	.	.	.	.	.	.
.	.	.	16f#/JJ	.	16ff#\JJ)	.	.	.	.	.	.	.	.	.	.	.	.	.	.	.	.	.	.	.
8E\	.	.	8e/L	.	8ee\L	.	.	.	.	.	.	.	.	.	.	.	.	.	.	.	.	.	.	.
8E\J	.	.	8B/J	.	8b\J	.	.	.	.	.	.	.	.	.	.	.	.	.	.	<	.	.	.	.
=14	=14	=14	=14	=14	=14	=14	=14	=14	=14	=14	=14	=14	=14	=14	=14	=14	=14	=14	=14	=14	=14	=14	=14	=14
*	*	*	*	*	*	*	*	*	*	*	*	*	*	*	*	*xywh-#5:2021,3884,4868,619	*	*	*	*	*	*	*	*
!LO:TX:b:i:t=Tasto	!	!	!	!	!	!	!	!	!	!	!	!	!	!	!	!	!	!	!	!	!	!	!	!
!LO:SIC:o=:v:dynamika"for"	!	!LO:DY:a	!LO:SIC:o=:v:dynamika"for"	!	!LO:SIC:o=:v:dynamika"for"	!	!	!	!	!	!	!	!	!	!	!LO:SIC:o=:v:dynamika"for"	!	!	!	!	!	!	!LO:SIC:o=:v:dynamika"for"	!
[<1E\	.	f	4.e/	f	4.ee\	f	4.E\	Ple-	<	4.E/	Ple-	.	4.e\	Ple-	<	4.e/	Ple-	.	[1E/	.	[1e/	<	2gg#\	f
.	.	.	16g#/LL	.	16gg#\LL	.	16G#\LL	-ni	.	16G#/LL	.	.	16g#\LL	.	.	16g#/LL	.	f	.	.	.	.	.	.
.	.	.	16f#/JJ	.	16ff#\JJ	.	16F#\JJ	.	.	16F#/JJ	.	.	16f#\JJ	.	.	16f#/JJ	.	.	.	.	.	.	.	.
*	*	*	*	*	*	*	*	*ij	*	*	*	*	*	*	*	*	*	*	*	*	*	*	*	*
.	.	.	8e/L	.	8ee\L	.	8E\L	Ple-	.	8E/L	-ni	.	8e\L	-ni	.	(8e/L	-ni	.	.	.	.	.	4gg#\	.
.	.	.	8f#/	.	8ff#\	.	8F#\J	.	.	8F#/J	.	.	8f#\J	.	.	8f#/J)	.	.	.	.	.	.	.	.
.	.	.	8g#/	.	8gg#\	.	8G#\	-ni	.	8G#/L	sunt	.	8g#\L	sunt	.	(8g#\L	sunt	.	.	.	.	.	4r	.
*	*	*	*	*	*	*	*	*Xij	*	*	*	*	*	*	*	*	*	*	*	*	*	*	*	*
.	.	.	8a/J	.	8aa\J	.	8A\	sunt	.	8A/J	.	.	8a\J	.	.	8a\J)	.	.	.	.	.	.	.	.
=15	=15	=15	=15	=15	=15	=15	=15	=15	=15	=15	=15	=15	=15	=15	=15	=15	=15	=15	=15	=15	=15	=15	=15	=15
*	*	*	*	*	*	*	*xywh-#10:6924,6659,4914,605	*	*	*	*	*	*	*	*	*	*	*	*	*	*	*	*	*
!	!	!	!	!	!	!	!LO:PB:g=original	!	!	!	!	!	!	!	!	!	!	!	!	!	!	!	!	!
1E\_<	.	.	4.b/	.	4.bb\	.	4.B\	cae-	.	4.B\	cae-	.	4.b\	Cae-	.	4.b\	cae-	.	1E/_	.	1e/_	.	2gg#\	.
!	!	!	!	!	!	!	!LO:SIC:o=:v:niejednoznaczny zapis łuku	!	!	!	!	!	!LO:SIC:o=:v:niejednoznaczny zapis łuku	!	!	!	!	!	!	!	!	!	!	!
.	.	.	16g#/LL	.	16gg#\LL	.	(16G#\LL	-li	.	16G#\LL	.	.	(16g#\LL	.	.	16g#\LL	.	.	.	.	.	.	.	.
.	.	.	16a/JJ	.	16aa\JJ	.	16A\JJ)	.	.	16A\JJ	.	.	16a\JJ)	.	.	16a\JJ	.	.	.	.	.	.	.	.
.	.	.	8b/L	.	8bb\L	.	8B\	et	.	8B\	-li	.	8b\	-li	.	8b\	-li	.	.	.	.	.	4gg#\	.
.	.	.	8e/J	.	8ee\J	.	8E\	et	.	8E/	et	.	8e\	et	.	8e/	et	.	.	.	.	.	.	.
.	.	.	.	.	8qqgg#/	.	.	.	.	.	.	.	.	.	.	.	.	.	.	.	.	.	.	.
.	.	.	8f#/L	.	8ff#\L	.	8F#\L	ter-	.	8F#/L	ter-	.	8f#\L	ter-	.	8f#/L	ter-	.	.	.	.	.	4ff#\	.
.	.	.	16e/L	.	16ee\L	.	8D#\J	.	.	8D#/J	.	.	8d#\J	.	.	8d#/J	.	.	.	.	.	.	.	.
.	.	.	16d#/JJ	.	16dd#\JJ	.	.	.	.	.	.	.	.	.	.	.	.	.	.	.	.	.	.	.
=16	=16	=16	=16	=16	=16	=16	=16	=16	=16	=16	=16	=16	=16	=16	=16	=16	=16	=16	=16	=16	=16	=16	=16	=16
1E\_<	.	.	4.e/	.	4.ee\	.	4E\	-ra	.	4E/	-ra	.	4e\	-ra	.	4e/	-ra	.	1E/_	.	1e/_	.	2gg#\	.
.	.	.	.	.	.	.	4r	.	.	4r	.	.	4r	.	.	4r	.	.	.	.	.	.	.	.
.	.	.	8b/	.	8gg#\	.	.	.	.	.	.	.	.	.	.	.	.	.	.	.	.	.	.	.
!	!	!	!	!	!LO:TX:t=P:|:problem	!	!	!	!	!	!	!	!	!	!	!	!	!	!	!	!	!	!	!
.	.	.	8a/L	.	8ff#`\L	.	4E\	ple-	.	4B\	ple-	.	4f#\	ple-	.	4dd#\	ple-	.	.	.	.	.	4ff#\	.
.	.	.	16f#/L	.	16dd#\L	.	.	.	.	.	.	.	.	.	.	.	.	.	.	.	.	.	.	.
.	.	.	16a/JJ	.	16ff#\JJ	.	.	.	.	.	.	.	.	.	.	.	.	.	.	.	.	.	.	.
!	!	!	!	!	!LO:TX:t=P:|:problem	!	!	!	!	!	!	!	!	!	!	!	!	!	!	!	!	!	!	!
.	.	.	8g#/L	.	8ee`\L	.	8E\	-ni	.	8B\	-ni	.	8g#\	-ni	.	8ee\	-ni	.	.	.	.	.	4gg#\	.
!	!	!	!	!	!	!	!	!	!	!	!	!	!	!	!	!LO:SIC:o=:v:dynamika"fo"	!	!LO:DY:t=fo	!	!	!	!	!	!
.	.	.	8b/J	.	(16b\L	.	8E\	sunt	.	8B\	sunt	.	8g#\	sunt	.	8ee\	sunt	f	.	.	.	.	.	.
.	.	.	.	.	16gg#\JJ)	.	.	.	.	.	.	.	.	.	.	.	.	.	.	.	.	.	.	.
=17	=17	=17	=17	=17	=17	=17	=17	=17	=17	=17	=17	=17	=17	=17	=17	=17	=17	=17	=17	=17	=17	=17	=17	=17
1E\_<	.	.	8a/L	.	8ff#\L	.	4E\	cae-	.	4B\	cae-	.	4f#\	cae-	.	4dd#\	cae-	.	1E/_	.	1e/_	.	4ff#\	.
.	.	.	8f#/	.	8dd#\	.	.	.	.	.	.	.	.	.	.	.	.	.	.	.	.	.	.	.
.	.	.	8g#/	.	8ee\	.	4E\	-li	.	4B\	-li	.	4g#\	-li	.	4ee\	-li	.	.	.	.	.	4gg#\	.
.	.	.	8b/J	.	8gg#\J	.	.	.	.	.	.	.	.	.	.	.	.	.	.	.	.	.	.	.
!	!	!	!	!	!LO:TX:t=P:|:problem	!	!	!	!	!	!	!	!	!	!	!	!	!	!	!	!	!	!	!
.	.	.	8a/L	.	8ff#`\L	.	4E\	{cae-	.	4B\	cae-	.	4f#\	cae-	.	4dd#\	cae-	.	.	.	.	.	4ff#\	.
.	.	.	16f#/L	.	(16dd#\L	.	.	.	.	.	.	.	.	.	.	.	.	.	.	.	.	.	.	.
.	.	.	16a/JJ	.	16ff#\JJ)	.	.	.	.	.	.	.	.	.	.	.	.	.	.	.	.	.	.	.
!	!	!	!	!	!LO:TX:t=P:|:problem	!	!	!	!	!	!	!	!	!	!	!	!	!	!	!	!	!	!	!
.	.	.	8g#/L	.	8ee`\L	.	8E\	-li}	.	8B\	-li	.	8g#\	-li	.	8ee\	-li	.	.	.	.	.	4gg#\	.
.	.	.	8b/J	.	(16b\L	.	8E\	et	.	8B\	et	.	8g#\	et	.	8ee\	et	.	.	.	.	.	.	.
.	.	.	.	.	16gg#\JJ)	.	.	.	.	.	.	.	.	.	.	.	.	.	.	.	.	.	.	.
=18	=18	=18	=18	=18	=18	=18	=18	=18	=18	=18	=18	=18	=18	=18	=18	=18	=18	=18	=18	=18	=18	=18	=18	=18
*	*	*	*xywh-#16:2145,2293,4922,648	*	*xywh-#13:2233,6921,4819,571	*	*	*	*	*xywh-#9:2070,2385,4755,643	*	*	*xywh-#7:2026,2339,4858,602	*	*	*	*	*	*	*	*	*	*	*
!	!	!	!LO:PB:g=original	!	!LO:PB:g=original	!	!	!	!	!LO:PB:g=original	!	!	!LO:PB:g=original	!	!	!	!	!	!LO:SIC:o=:v:1 cała nuta	!	!	!	!	!
!	!	!	!	!	!	!	!	!	!	!	!	!	!	!	!	!	!	!	!LO:N:vis=1	!	!	!	!	!
2E\]	.	.	8a/L	.	8ff#\L	.	4E\	ter-	.	4B\	ter-	.	4f#\	ter-	.	4dd#\	ter-	.	2E/]	.	2e\]	.	8ff#\L	.
.	.	.	8f#/J	.	8dd#\J	.	.	.	.	.	.	.	.	.	.	.	.	.	.	.	.	.	8dd#\J	.
.	.	.	4g#/	.	4ee\	.	4E\	-ra	.	4B\	-ra	.	4g#\	-ra	.	4ee\	-ra	.	.	.	.	.	4ee\	.
*	*	*	*tremolo	*	*	*	*	*	*	*	*	*	*	*	*	*	*	*	*	*	*	*	*	*
4D#\	.	.	16b\LL	.	16ff#\LL	.	8D#\	glo-	.	8B\	glo-	.	8f#\	glo-	.	8b\	glo-	.	4B/	.	4f#\	.	4ff#\	.
!	!	!	!	!	!LO:TX:a:i:t=h	!	!	!	!	!	!	!	!	!	!	!	!	!	!	!	!	!	!	!
.	.	.	16b\	.	16b\	.	.	.	.	.	.	.	.	.	.	.	.	.	.	.	.	.	.	.
.	.	.	16b\	.	16ff#\	.	16D#\	-ri-	.	16B\	-ri-	.	16f#\	-ri-	.	16b\	-ri-	.	.	.	.	.	.	.
.	.	.	16b\	.	16b\JJ	.	16D#\	-a	.	16B\	-a	.	16f#\	-a	.	16b\	-a	.	.	.	.	.	.	.
4E\	.	.	16b\	.	16gg#\LL	.	4E\	tu-	.	4B\	tu-	.	4g#\	tu-	.	4b\	tu-	.	4e\	.	4g#\	.	4gg#\	.
.	.	.	16b\	.	16b\	.	.	.	.	.	.	.	.	.	.	.	.	.	.	.	.	.	.	.
.	.	.	16b\	.	16gg#\	.	.	.	.	.	.	.	.	.	.	.	.	.	.	.	.	.	.	.
.	.	.	16b\JJ	.	16b\JJ	.	.	.	.	.	.	.	.	.	.	.	.	.	.	.	.	.	.	.
=19	=19	=19	=19	=19	=19	=19	=19	=19	=19	=19	=19	=19	=19	=19	=19	=19	=19	=19	=19	=19	=19	=19	=19	=19
4D#\	.	.	16b\LL	.	16ff#\LL	.	4D#\	-a	.	4B\	-a	.	4f#\	-a	.	4b\	-a	.	4B/	.	4f#\	.	4ff#\	.
.	.	.	16b\	.	16bb\	.	.	.	.	.	.	.	.	.	.	.	.	.	.	.	.	.	.	.
.	.	.	16b\	.	16ff#\	.	.	.	.	.	.	.	.	.	.	.	.	.	.	.	.	.	.	.
.	.	.	16b\	.	16dd#\JJ	.	.	.	.	.	.	.	.	.	.	.	.	.	.	.	.	.	.	.
4r	.	.	16b\	.	8b\L	.	4r	.	.	4r	.	.	4r	.	.	4r	.	.	4r	.	4r	.	4r	.
.	.	.	16b\	.	.	.	.	.	.	.	.	.	.	.	.	.	.	.	.	.	.	.	.	.
.	.	.	16b\	.	8bb\J	.	.	.	.	.	.	.	.	.	.	.	.	.	.	.	.	.	.	.
.	.	.	16b\JJ	.	.	.	.	.	.	.	.	.	.	.	.	.	.	.	.	.	.	.	.	.
!	!	!	!	!	!	!	!	!	!	!	!	!	!	!	!	!	!	!	!LO:SIC:o=:v:dynamika"for"	!	!LO:SIC:o=:v:dynamika"for"	!	!	!
4D#\	.	.	16b\LL	.	16ff#\LL	.	8D#\	glo-	.	8B\	glo-	.	16f#\	glo-	.	16b\	glo-	.	4B/	f	4f#\	f	4ff#\	.
.	.	.	16b\	.	16b\	.	.	.	.	.	.	.	16f#\	-ri-	.	16b\	-ri-	.	.	.	.	.	.	.
.	.	.	16b\	.	16ff#\	.	16D#\	-ri-	.	16B\	-ri-	.	8f#\	-a	.	8b\	-a	.	.	.	.	.	.	.
.	.	.	16b\	.	16b\JJ	.	16D#\	-a	.	16B\	-a	.	.	.	.	.	.	.	.	.	.	.	.	.
*	*	*	*	*	*	*	*	*	*	*	*	*	*	*	*	*xywh-#5:2030,4400,4782,610	*	*	*	*	*	*	*	*
!	!	!	!	!	!	!	!	!	!	!	!	!	!	!	!	!LO:PB:g=original	!	!	!	!	!	!	!	!
4E\	.	.	16b\	.	16gg#\LL	.	4E\	tu-	.	4B\	tu-	.	4g#\	tu-	.	4b\	tu-	.	4e\	.	4g#\	.	4gg#\	.
.	.	.	16b\	.	16b\	.	.	.	.	.	.	.	.	.	.	.	.	.	.	.	.	.	.	.
.	.	.	16b\	.	16gg#\	.	.	.	.	.	.	.	.	.	.	.	.	.	.	.	.	.	.	.
.	.	.	16b\JJ	.	16b\JJ	.	.	.	.	.	.	.	.	.	.	.	.	.	.	.	.	.	.	.
=20	=20	=20	=20	=20	=20	=20	=20	=20	=20	=20	=20	=20	=20	=20	=20	=20	=20	=20	=20	=20	=20	=20	=20	=20
*	*	*	*	*	*	*	*	*	*	*	*	*	*	*	*	*	*	*	*	*	*	*	*xywh-#18:2086,1786,4931,484	*
!	!	!	!	!	!	!	!	!	!	!	!	!	!	!	!	!	!	!	!	!	!	!	!LO:P:g=original	!
4D#\	.	.	16b\LL	.	16ff#\LL	.	4D#\	-a	.	4B\	-a	.	4f#\	-a	.	4b\	-a	.	4B/	.	4f#\	.	4ff#\	.
.	.	.	16b\	.	16bb\	.	.	.	.	.	.	.	.	.	.	.	.	.	.	.	.	.	.	.
.	.	.	16b\	.	16ff#\	.	.	.	.	.	.	.	.	.	.	.	.	.	.	.	.	.	.	.
.	.	.	16b\JJ	.	16dd#\JJ	.	.	.	.	.	.	.	.	.	.	.	.	.	.	.	.	.	.	.
*	*	*	*Xtremolo	*	*	*	*	*	*	*	*	*	*	*	*	*	*	*	*	*	*	*	*	*
!	!	!	!LO:TX:t=P:mixedbeam:problem	!	!	!	!	!	!	!	!	!	!	!	!	!	!	!	!	!	!	!	!	!
8r	.	.	8b\L	.	8b\L	.	4r	.	.	4r	.	.	4r	.	.	4r	.	.	4r	.	4r	.	4r	.
*clefC4	*	*	*	*	*	*	*	*	*	*	*	*	*	*	*	*	*	*	*	*	*	*	*	*
8B\	.	.	8B/J	.	8b\J	.	.	.	.	.	.	.	.	.	.	.	.	.	.	.	.	.	.	.
8c#\L	.	.	8c#/L	p:	8cc#\L	p	2r	.	.	2r	.	.	2r	.	.	2r	.	.	2r	.	2r	.	8cc#\L	.
8d#\	.	.	8d#/	.	8dd#\	.	.	.	.	.	.	.	.	.	.	.	.	.	.	.	.	.	8dd#\	.
8e\	.	.	8e/	.	8ee\	.	.	.	.	.	.	.	.	.	.	.	.	.	.	.	.	.	8ee\	.
8f#\J	.	.	8f#/J	.	8ff#\J	.	.	.	.	.	.	.	.	.	.	.	.	.	.	.	.	.	8ff#\J	.
=21	=21	=21	=21	=21	=21	=21	=21	=21	=21	=21	=21	=21	=21	=21	=21	=21	=21	=21	=21	=21	=21	=21	=21	=21
!	!	!	!	!	!	!	!LO:TX:a:i:t=1	!	!	!	!	!	!	!	!	!LO:TX:a:i:t=1	!	!	!LO:TX:a:i:t=3	!	!LO:TX:a:i:t=3	!	!	!
.	.	.	.	.	8qqee/	.	.	.	.	.	.	.	.	.	.	.	.	.	.	.	.	.	.	.
8d#\L	.	.	8d#/L	.	8dd#\L	.	1r	.	.	1r	.	.	1r	.	.	1r	.	.	0r	.	0r	.	4dd#\	.
16c#\L	.	.	16c#/L	.	16cc#\L	.	.	.	.	.	.	.	.	.	.	.	.	.	.	.	.	.	.	.
16d#\JJ	.	.	16d#/JJ	.	16dd#\JJ	.	.	.	.	.	.	.	.	.	.	.	.	.	.	.	.	.	.	.
8B\L	.	.	8B/L	.	8b\L	.	.	.	.	.	.	.	.	.	.	.	.	.	.	.	.	.	4b\	.
8d#\J	.	.	8d#/J	.	8dd#\J	.	.	.	.	.	.	.	.	.	.	.	.	.	.	.	.	.	.	.
*xywh-#25:2321,5401,4745,663	*	*	*	*	*	*	*	*	*	*	*	*	*	*	*	*	*	*	*	*	*	*	*	*
!LO:LB:g=original	!	!	!	!	!	!	!	!	!	!	!	!	!	!	!	!	!	!	!	!	!	!	!	!
8c#\L	.	.	8c#/L	.	8cc#\L	.	.	.	.	.	.	.	.	.	.	.	.	.	.	.	.	.	8cc#\L	.
8d#\	.	.	8d#/	.	8dd#\	.	.	.	.	.	.	.	.	.	.	.	.	.	.	.	.	.	8dd#\	.
8e\	.	.	8e/	.	8ee\	.	.	.	.	.	.	.	.	.	.	.	.	.	.	.	.	.	8ee\	.
8f#\J	.	.	8f#/J	.	8ff#\J	.	.	.	.	.	.	.	.	.	.	.	.	.	.	.	.	.	8ff#\J	.
=22	=22	=22	=22	=22	=22	=22	=22	=22	=22	=22	=22	=22	=22	=22	=22	=22	=22	=22	=22	=22	=22	=22	=22	=22
*	*	*	*	*	*	*	*xywh-#10:6915,7161,4897,648	*	*	*	*	*	*	*	*	*	*	*	*	*	*	*	*	*
4B\	.	.	4B/	.	4b\	.	2r	.	.	2r	.	.	2r	.	.	2r	.	.	.	.	.	.	4b\	.
4r	.	.	8r	.	8r	.	.	.	.	.	.	.	.	.	.	.	.	.	.	.	.	.	4r	.
!	!	!	!LO:SIC:s=:v:8cc#	!	!	!	!	!	!	!	!	!	!	!	!	!	!	!	!	!	!	!	!	!
.	.	.	8dd#\	.	8ee\	.	.	.	.	.	.	.	.	.	.	.	.	.	.	.	.	.	.	.
*clefF4	*	*	*	*	*	*	*	*	*	*	*	*	*	*	*	*	*	*	*	*	*	*	*	*
*k[f#c#g#d#]	*	*	*	*	*	*	*	*	*	*	*	*	*	*	*	*	*	*	*	*	*	*	*	*
!LO:SIC:o=:v:znaki przykluczowe	!	!	!LO:SIC:o=:v:dynamika"for"	!	!LO:SIC:o=:v:dynamika "fo&colon;"	!	!LO:SIC:o=:v:dynamika"for"	!	!	!	!	!	!LO:SIC:o=:v:dynamika"for"	!	!	!LO:SIC:o=:v:dynamika"for"	!	!	!	!	!	!	!	!
!	!	!	!	!	!	!LO:DY:t=fo	!	!	!	!	!	!	!	!	!	!	!	!	!	!	!	!	!	!
[2BB/	.	p:	8ee\L	f	8gg#\L	f	4B\	Ple-	f	4e\	Ple-	.	4b\	Ple-	f	4gg#\	Ple-	f	.	.	.	.	4gg#\	.
.	.	.	16cc#\L	.	16ee\L	.	.	.	.	.	.	.	.	.	.	.	.	.	.	.	.	.	.	.
.	.	.	16ee\JJ	.	16gg#\JJ	.	.	.	.	.	.	.	.	.	.	.	.	.	.	.	.	.	.	.
.	.	.	8dd#\L	.	8ff#\L	.	8B\	-ni	.	8d#\	-ni	.	8b\	-ni	.	8ff#\	-ni	.	.	.	.	.	4ff#\	.
.	.	.	16b\L	.	16dd#\L	.	8B\	sunt	.	8d#\	sunt	.	8b\	sunt	.	8ff#\	sunt	.	.	.	.	.	.	.
.	.	.	16dd#\JJ	.	16ff#\JJ	.	.	.	.	.	.	.	.	.	.	.	.	.	.	.	.	.	.	.
=23	=23	=23	=23	=23	=23	=23	=23	=23	=23	=23	=23	=23	=23	=23	=23	=23	=23	=23	=23	=23	=23	=23	=23	=23
1BB/_	.	.	8cc#\L	.	8ee\L	.	4B\	cae-	.	4c#\	cae-	.	4b\	cae-	.	4ee\	cae-	.	1r	.	1r	.	4ee\	.
.	.	.	16a#X\L	.	16cc#\L	.	.	.	.	.	.	.	.	.	.	.	.	.	.	.	.	.	.	.
.	.	.	16cc#\JJ	.	16ee\JJ	.	.	.	.	.	.	.	.	.	.	.	.	.	.	.	.	.	.	.
.	.	.	8b\L	.	8dd#\L	.	4B\	-li	.	4B\	-li	.	4b\	-li	.	4dd#\	-li	.	.	.	.	.	4dd#\	.
.	.	.	8b\J	.	8b\J	.	.	.	.	.	.	.	.	.	.	.	.	.	.	.	.	.	.	.
*	*	*	*	*	*	*	*	*ij	*	*	*	*	*	*	*	*	*	*	*	*	*	*	*	*
.	.	.	8ee\L	.	8gg#\L	.	4B\	cae-	.	4e\	cae-	.	4b\	et	.	4gg#\	cae-	.	.	.	.	.	4gg#\	.
.	.	.	16cc#\L	.	16ee\L	.	.	.	.	.	.	.	.	.	.	.	.	.	.	.	.	.	.	.
.	.	.	16ee\JJ	.	16gg#\JJ	.	.	.	.	.	.	.	.	.	.	.	.	.	.	.	.	.	.	.
.	.	.	8dd#\L	.	8ff#\L	.	8B\	-li	.	8d#\	-li	.	8b\	.	.	8ff#\	-li	.	.	.	.	.	4ff#\	.
*	*	*	*	*	*	*	*	*Xij	*	*	*	*	*	*	*	*	*	*	*	*	*	*	*	*
.	.	.	16b\L	.	16dd#\L	.	8B\	et	.	8d#\	et	.	8b\	et	.	8ff#\	et	.	.	.	.	.	.	.
.	.	.	16dd#\JJ	.	16ff#\JJ	.	.	.	.	.	.	.	.	.	.	.	.	.	.	.	.	.	.	.
=24	=24	=24	=24	=24	=24	=24	=24	=24	=24	=24	=24	=24	=24	=24	=24	=24	=24	=24	=24	=24	=24	=24	=24	=24
*	*	*	*	*	*	*	*	*	*	*xywh-#9:2070,2852,4775,633	*	*	*xywh-#7:2047,2806,4848,654	*	*	*	*	*	*	*	*	*	*	*
!	!	!	!	!	!	!	!	!	!	!LO:PB:g=original	!	!	!LO:PB:g=original	!	!	!	!	!	!	!	!	!	!	!
2BB/]	.	.	8cc#\L	.	8ee\L	.	4B\	ter-	.	4c#\	ter-	.	4b\	ter-	.	4ee\	ter-	.	2r	.	2r	.	4ee\	.
.	.	.	16a#X\L	.	16cc#\L	.	.	.	.	.	.	.	.	.	.	.	.	.	.	.	.	.	.	.
.	.	.	16cc#\JJ	.	16ee\JJ	.	.	.	.	.	.	.	.	.	.	.	.	.	.	.	.	.	.	.
.	.	.	8b\L	.	8dd#\L	.	4B\	-ra	.	4B\	-ra	.	4b\	-ra	.	4dd#\	-ra	.	.	.	.	.	4dd#\	.
.	.	.	8b\J	.	8b\J	.	.	.	.	.	.	.	.	.	.	.	.	.	.	.	.	.	.	.
[2E\	.	.	8aa\L	.	8ccc#\L	.	4E\	glo-	.	4e\	Ple-	.	4a\	glo-	.	4cc#\	ple-	.	2E/	<	2e\	<	4aa\	.
!	!	!	!LO:TX:b:t=t	!	!	!	!	!	!	!	!	!	!	!	!	!	!	!	!	!	!	!	!	!
.	.	.	16ff#\L	.	16aa\L	.	.	.	.	.	.	.	.	.	.	.	.	.	.	.	.	.	.	.
.	.	.	16aa\JJ	.	16ccc#\JJ	.	.	.	.	.	.	.	.	.	.	.	.	.	.	.	.	.	.	.
*	*	*	*	*	*xywh-#13:2250,7405,4827,795	*	*	*	*	*	*	*	*	*	*	*	*	*	*	*	*	*	*	*
!	!	!	!	!	!LO:PB:g=original	!	!	!	!	!	!	!	!	!	!	!	!	!	!	!	!	!	!	!
.	.	.	8gg#\L	.	8bb\L	.	8E\	-ri-	.	8e\	-ni	.	8g#\	-ri-	.	8b\	-ni	.	.	.	.	.	4gg#\	.
.	.	.	16ee\L	.	16gg#\L	.	8E\	-a	.	8e\	sunt	.	8g#\	-a	.	8b\	sunt	.	.	.	.	.	.	.
.	.	.	16gg#\JJ	.	16bb\JJ	.	.	.	.	.	.	.	.	.	.	.	.	.	.	.	.	.	.	.
=25	=25	=25	=25	=25	=25	=25	=25	=25	=25	=25	=25	=25	=25	=25	=25	=25	=25	=25	=25	=25	=25	=25	=25	=25
*	*	*	*	*	*	*	*	*	*	*	*	*	*	*	*	*	*	*	*xywh-#21:2084,2957,2144,627	*	*	*	*	*
!	!	!	!	!	!	!	!	!	!	!	!	!	!	!	!	!	!	!	!LO:PB:g=original	!	!	!	!	!
1E\_	.	.	8ff#\L	.	8aa\L	.	4E\	tu-	.	4e\	cae-	.	4f#\	tu-	.	4a\	cae-	.	1E/	.	1e/	.	4ff#\	.
.	.	.	16dd#\L	.	16ff#\L	.	.	.	.	.	.	.	.	.	.	.	.	.	.	.	.	.	.	.
.	.	.	16ff#\JJ	.	16aa\JJ	.	.	.	.	.	.	.	.	.	.	.	.	.	.	.	.	.	.	.
.	.	.	8ee\L	.	8gg#\L	.	4E\	-a	.	4e\	-li	.	4e\	-a	.	4g#\	-li	.	.	.	.	.	4ee\	.
.	.	.	8ee\J	.	8ee\J	.	.	.	.	.	.	.	.	.	.	.	.	.	.	.	.	.	.	.
*	*	*	*	*	*	*	*	*	*	*	*	*	*	*	*	*	*ij	*	*	*	*	*	*	*
.	.	.	8aa\L	.	8ccc#\L	.	4E\	glo-	.	4e\	cae-	.	4a\	cae-	.	4cc#\	cae-	.	.	.	.	.	4aa\	.
.	.	.	16ff#\L	.	16aa\L	.	.	.	.	.	.	.	.	.	.	.	.	.	.	.	.	.	.	.
.	.	.	16aa\JJ	.	16ccc#\JJ	.	.	.	.	.	.	.	.	.	.	.	.	.	.	.	.	.	.	.
*	*	*	*xywh-#16:2145,2838,4827,553	*	*	*	*	*	*	*	*	*	*	*	*	*	*	*	*	*	*	*	*	*
!	!	!	!LO:PB:g=original	!	!	!	!	!	!	!	!	!	!	!	!	!	!	!	!	!	!	!	!	!
.	.	.	8gg#\L	.	8bb\L	.	8E\	-ri-	.	8e\	-li	.	8g#\	-li	.	8b\	-li	.	.	.	.	.	4gg#\	.
*	*	*	*	*	*	*	*	*	*	*	*	*	*	*	*	*	*Xij	*	*	*	*	*	*	*
.	.	.	16ee\L	.	16gg#\L	.	8E\	-a	.	8e\	et	.	8g#\	et	.	8b\	et	.	.	.	.	.	.	.
.	.	.	16gg#\JJ	.	16bb\JJ	.	.	.	.	.	.	.	.	.	.	.	.	.	.	.	.	.	.	.
=26	=26	=26	=26	=26	=26	=26	=26	=26	=26	=26	=26	=26	=26	=26	=26	=26	=26	=26	=26	=26	=26	=26	=26	=26
2E\]	.	.	8ff#\L	.	8aa\L	.	4E\	tu-	.	4d#\	ter-	.	4f#\	ter-	.	4a\	ter-	.	2E/	.	2e\	.	4ff#\	.
.	.	.	16dd#\L	.	16ff#\L	.	.	.	.	.	.	.	.	.	.	.	.	.	.	.	.	.	.	.
.	.	.	16ff#\JJ	.	16aa\JJ	.	.	.	.	.	.	.	.	.	.	.	.	.	.	.	.	.	.	.
!	!	!	!LO:TX:t=P:problem=mixedbeam	!	!	!	!	!	!	!	!	!	!	!	!	!	!	!	!	!	!	!	!	!
.	.	.	8ee\L	.	8gg#\L	.	4E\	-a	.	4e\	-ra	.	4e\	-ra	.	4g#\	-ra	.	.	.	.	.	4ee\	.
.	.	.	8e/J	.	8ee\J	.	.	.	.	.	.	.	.	.	.	.	.	.	.	.	.	.	.	.
!LO:SIC:o=:v:niejednoznaczny zapis artykulacji w tt. 26-27	!	!	!	!	!	!	!	!	!	!	!	!	!	!	!	!	!	!	!	!	!	!	!	!
!LO:SIC:o=:v:dynamika"for"	!	!	!	!	!	!	!LO:SIC:o=:v:dynamika"for"	!	!	!LO:SIC:o=:v:dynamika"for"	!	!	!LO:SIC:o=:v:dynamika"for"	!	!	!LO:SIC:o=:v:dynamika"fo"	!	!	!	!	!	!	!	!
4e'\	.	f	4ee\	.	4ee\	.	4e\	glo-	f	4e\	glo-	f	4ee\	glo-	f	4ee\	glo-	f	2r	.	2r	.	2r	.
8d#'\L	.	.	8dd#\L	.	8dd#\L	.	8d#\	-ri-	.	8d#\	-ri-	.	8dd#\	-ri-	.	8dd#\	-ri-	.	.	.	.	.	.	.
8c#'\J	.	.	8cc#\J	.	8cc#\J	.	8c#\	-a	.	8c#\	-a	.	8cc#\	-a	.	8cc#\	-a	.	.	.	.	.	.	.
=27	=27	=27	=27	=27	=27	=27	=27	=27	=27	=27	=27	=27	=27	=27	=27	=27	=27	=27	=27	=27	=27	=27	=27	=27
!	!	!	!	!	!	!	!	!	!	!	!	!	!	!	!	!	!	!	!LO:TX:a:i:t=5	!	!LO:TX:a:i:t=5	!	!	!
*	*	*	*	*	*	*	*	*ij	*	*	*	*	*	*	*	*	*	*	*	*	*	*	*	*
8B'\L	.	.	8b\L	.	8b/L	.	8B\	glo-	.	8B\	glo-	.	8b\	glo-	.	8b\	glo-	.	00r	.	00r	.	8bb\L	.
8A'\J	.	.	8a\J	.	8a/J	.	8A\	-ri-	.	8A\	-ri-	.	8a\	-ri-	.	8a\	-ri-	.	.	.	.	.	8aa\J	.
4G#'\	.	.	4g#/	.	4g#/	.	4G#\	-a	.	4G#/	-a	.	4g#\	-a	.	4g#\	-a	.	.	.	.	.	4gg#\	.
*	*	*	*	*	*	*	*	*Xij	*	*	*	*	*	*	*	*	*	*	*	*	*	*	*	*
8A\L	.	.	8a/L	.	8a/L	.	8A\L	tu-	.	8A/L	tu-	.	8a\L	tu-	.	8a\L	tu-	.	.	.	.	.	8aa\L	.
8G#\	.	.	8g#/	.	8g#/	.	8G#\	.	.	8G#/	.	.	8g#\	.	.	8g#\	.	.	.	.	.	.	8gg#\	.
8F#\	.	.	8f#/	.	8f#/	.	8F#\	.	.	8F#/	.	.	8f#\	.	.	8f#\	.	.	.	.	.	.	8ff#\	.
8B\J	.	.	8b/J	.	8b/J	.	8B\J	.	.	8B/J	.	.	8b\J	.	.	8b\J	.	.	.	.	.	.	8bb\J	.
=28	=28	=28	=28	=28	=28	=28	=28	=28	=28	=28	=28	=28	=28	=28	=28	=28	=28	=28	=28	=28	=28	=28	=28	=28
*	*	*	*	*	*	*	*	*	*	*	*	*	*	*	*	*xywh-#5:2055,4838,2287,705	*	*	*	*	*	*	*	*
!LO:TX:b:i:t=Tasto	!	!LO:DY:a	!	!	!	!	!	!	!	!	!	!	!	!	!	!	!	!	!	!	!	!	!	!
[<1E\	.	p	4e/	.	4e/	.	4E\	-a	.	4E/	-a	.	4e\	-a	.	4e/	-a	.	.	.	.	.	4ee\	.
.	.	.	8r	.	8r	.	4r	.	.	4r	.	.	4r	.	.	4r	.	.	.	.	.	.	8r	.
.	.	.	8e/	p	8ee\	.	.	.	.	.	.	.	.	.	.	.	.	.	.	.	.	.	8ee\	.
!	!	!	!	!	!LO:SIC:o=:v:dynamika"fo"	!	!	!	!	!	!	!	!	!	!	!	!	!	!	!	!	!	!	!
.	.	.	8f#/L	.	8ff#\L	f	2r	.	.	2r	.	.	2r	.	.	2r	.	.	.	.	.	.	8ff#\L	.
.	.	.	8g#/	.	8gg#\	.	.	.	.	.	.	.	.	.	.	.	.	.	.	.	.	.	8gg#\	.
.	.	.	8a/	.	8aa\	.	.	.	.	.	.	.	.	.	.	.	.	.	.	.	.	.	8aa\	.
.	.	.	8b/J	.	8bb\J	.	.	.	.	.	.	.	.	.	.	.	.	.	.	.	.	.	8bb\J	.
=29	=29	=29	=29	=29	=29	=29	=29	=29	=29	=29	=29	=29	=29	=29	=29	=29	=29	=29	=29	=29	=29	=29	=29	=29
!	!	!	!	!	!	!	!LO:TX:a:i:t=5	!	!	!LO:TX:a:i:t=5	!	!	!LO:TX:a:i:t=5	!	!	!LO:TX:a:i:t=5	!	!	!	!	!	!	!	!
1E\_<	.	.	8g#/L	.	8gg#'\L	.	00r	.	.	00r	.	.	00r	.	.	00r	.	.	.	.	.	.	4gg#\	.
.	.	.	16f#/L	.	(16ff#\L	.	.	.	.	.	.	.	.	.	.	.	.	.	.	.	.	.	.	.
.	.	.	16g#/JJ	.	16gg#\JJ)	.	.	.	.	.	.	.	.	.	.	.	.	.	.	.	.	.	.	.
.	.	.	8e/L	.	8ee\L	.	.	.	.	.	.	.	.	.	.	.	.	.	.	.	.	.	8ee\L	.
.	.	.	8g#/J	.	8gg#\J	.	.	.	.	.	.	.	.	.	.	.	.	.	.	.	.	.	8gg#\J	.
.	.	.	8f#/L	.	8ff#\L	.	.	.	.	.	.	.	.	.	.	.	.	.	.	.	.	.	8ff#\L	.
.	.	.	8e/	.	8ee\	.	.	.	.	.	.	.	.	.	.	.	.	.	.	.	.	.	8ee\	.
.	.	.	8f#/	.	8ff#\	.	.	.	.	.	.	.	.	.	.	.	.	.	.	.	.	.	8ff#\	.
.	.	.	8g#/J	.	8gg#\J	.	.	.	.	.	.	.	.	.	.	.	.	.	.	.	.	.	8gg#\J	.
=30	=30	=30	=30	=30	=30	=30	=30	=30	=30	=30	=30	=30	=30	=30	=30	=30	=30	=30	=30	=30	=30	=30	=30	=30
1E\_<	.	.	4e/	.	4ee\	.	.	.	.	.	.	.	.	.	.	.	.	.	.	.	.	.	4ee\	.
.	.	.	8r	.	8r	.	.	.	.	.	.	.	.	.	.	.	.	.	.	.	.	.	8r	.
.	.	.	8e/	.	8ee\	.	.	.	.	.	.	.	.	.	.	.	.	.	.	.	.	.	8ee\	.
*	*	*	*	*	*	*	*	*	*	*	*	*	*	*	*	*	*	*	*	*	*	*	*xywh-#18:2068,2227,2033,579	*
!	!	!	!	!	!	!	!	!	!	!	!	!	!	!	!	!	!	!	!	!	!	!	!LO:PB:g=original	!
.	.	.	8f#/L	.	8ff#\L	.	.	.	.	.	.	.	.	.	.	.	.	.	.	.	.	.	8ff#\L	.
.	.	.	8g#/	.	8gg#\	.	.	.	.	.	.	.	.	.	.	.	.	.	.	.	.	.	8gg#\	.
.	.	.	8a/	.	8aa\	.	.	.	.	.	.	.	.	.	.	.	.	.	.	.	.	.	8aa\	.
.	.	.	8b/J	.	8bb\J	.	.	.	.	.	.	.	.	.	.	.	.	.	.	.	.	.	8bb\J	.
=31	=31	=31	=31	=31	=31	=31	=31	=31	=31	=31	=31	=31	=31	=31	=31	=31	=31	=31	=31	=31	=31	=31	=31	=31
1E\_<	.	.	8g#/L	.	8gg#\L	.	.	.	.	.	.	.	.	.	.	.	.	.	1r	.	1r	.	4gg#\	.
.	.	.	16f#/L	.	16ff#\L	.	.	.	.	.	.	.	.	.	.	.	.	.	.	.	.	.	.	.
.	.	.	16g#/JJ	.	16gg#\JJ	.	.	.	.	.	.	.	.	.	.	.	.	.	.	.	.	.	.	.
.	.	.	8e/L	.	8ee\L	.	.	.	.	.	.	.	.	.	.	.	.	.	.	.	.	.	8ee\L	.
.	.	.	8g#/J	.	8gg#\J	.	.	.	.	.	.	.	.	.	.	.	.	.	.	.	.	.	8gg#\J	.
.	.	.	8f#/L	.	8ff#\L	.	.	.	.	.	.	.	.	.	.	.	.	.	.	.	.	.	8ff#\L	.
.	.	.	8e/	.	8ee\	.	.	.	.	.	.	.	.	.	.	.	.	.	.	.	.	.	8ee\	.
.	.	.	8f#/	.	8ff#\	.	.	.	.	.	.	.	.	.	.	.	.	.	.	.	.	.	8ff#\	.
.	.	.	8g#/J	.	8gg#\J	.	.	.	.	.	.	.	.	.	.	.	.	.	.	.	.	.	8gg#\J	.
=32	=32	=32	=32	=32	=32	=32	=32	=32	=32	=32	=32	=32	=32	=32	=32	=32	=32	=32	=32	=32	=32	=32	=32	=32
*	*	*	*	*	*	*	*	*	*	*	*	*	*	*	*	*	*	*	*	*	*xywh-#19:7859,3666,1921,640	*	*	*
!	!	!	!	!	!	!	!	!	!	!	!	!	!	!	!	!	!	!	!LO:SIC:o=:v:dynamika"for"	!LO:PB:g=original	!	!	!	!
1E\_<	.	.	4.e/	.	4.ee\	.	.	.	.	.	.	.	.	.	.	.	.	.	4.G#/	f	4.e\	.	4.ee\	.
.	.	.	8g#/	.	8gg#\	.	.	.	.	.	.	.	.	.	.	.	.	.	8B/	.	8g#\	.	8gg#\	.
!	!	!	!	!	!	!	!	!	!	!	!	!	!	!	!	!	!	!	!	!	!LO:TX:a:i:t=c	!	!	!
.	.	.	8e/L	.	8ee\L	.	.	.	.	.	.	.	.	.	.	.	.	.	8G#/L	.	8e\L	.	8ee\L	.
.	.	.	8g#/	.	8gg#\	.	.	.	.	.	.	.	.	.	.	.	.	.	8B/	.	8g#\	.	8gg#\	.
.	.	.	8e/	.	8ee\	.	.	.	.	.	.	.	.	.	.	.	.	.	8G#/	.	8e\	.	8ee\	.
.	.	.	8g#/J	.	8gg#\J	.	.	.	.	.	.	.	.	.	.	.	.	.	8B/J	.	8g#\J	.	8gg#\J	.
=33	=33	=33	=33	=33	=33	=33	=33	=33	=33	=33	=33	=33	=33	=33	=33	=33	=33	=33	=33	=33	=33	=33	=33	=33
!LO:SIC:o=:v:ligatura połączona z pustym taktem	!	!	!	!	!	!	!	!	!	!	!	!	!	!	!	!	!	!	!	!	!	!	!	!
1E\]	.	.	4e/	.	4ee\	.	1r	.	.	1r	.	.	1r	.	.	1r	.	.	4G#/	.	8e\	.	4ee\	.
.	.	.	.	.	.	.	.	.	.	.	.	.	.	.	.	.	.	.	.	.	8r	.	.	.
!	!	!	!	!	!	!	!	!	!	!	!	!	!	!	!	!	!	!	!	!	!LO:SIC:o=:v:brak pauz	!	!	!
.	.	.	4r	.	4r	.	.	.	.	.	.	.	.	.	.	.	.	.	4r	.	4ryy	.	4r	.
!	!	!	!	!	!LO:SIC:o=:v:brak pauzy	!	!	!	!	!	!	!	!	!	!	!	!	!	!	!	!	!	!	!
.	.	.	2r	.	2ryy	.	.	.	.	.	.	.	.	.	.	.	.	.	2r	.	2ryy	.	2r	.
==	==	==	==	==	==	==	==	==	==	==	==	==	==	==	==	==	==	==	==	==	==	==	==	==
*-	*-	*-	*-	*-	*-	*-	*-	*-	*-	*-	*-	*-	*-	*-	*-	*-	*-	*-	*-	*-	*-	*-	*-	*-
!!!system-decoration: [(s1)][(s2,s3)][(s4,s5,s6,s7)][(s8,s9)]s10
!!!RDF**kern: > = above
!!!RDF**kern: < = below
!!!RDF**dynam: f = for
!!!RDF**dynam: < = Cres
!!!ENC: Andrzej Kubiczek
!!!END: 2020-03-19
!!!ENC: Leszek Kubiak
!!!END: 2020-05-19
!!!ENC-iiif: Emilia Ziętek
!!!END-iiif: 2022-09-04
!!!YEC: Copyright 2022 Narodowy Instytut Fryderyka Chopina (https://polishscores.org)
!!!YEM: License CC-BY-4.0 (https://creativecommons.org/licenses/by/4.0)
